X: 105
T: My Irish Molly O
M:4/4
R:song
L:1/4
Z:added by Alf Warnock - alf0@rogers.com - www.alfwarnock.info/alfs
K:D
"Bm"ff f>e|dB B>c|dB AB|"F#7"F4|"Bm"ff f>e|dB B>c|dB "Ddim"f=f|"F#7"e4|
"Bm"ff f>e|dB B>c|dB AB|"F#7"F3F|"Bm"Bc de|ff f>e|dB "F#7"c^A|"Bm"B3c|
P:Chorus
"D"d2 "Dmaj7"c2 -|cF =F^F|"D"B2 "D6"A2 -|A4|"D"A2 B2 -|Bc dB|"Em"g4 -|g4|
"G"g2 "F#7"f2 -|fc =c^c|"Bm"e2 d2 -|dd "Ddim"e=f|"E7"f2 B2 -|Bd cd|"Em7"e4 -|e4|
"D"A2 "Dmaj7"B2 -|Bc dB|"Em7"d2 "A7"c2 -|c4|c2 "Em7"d2 -|dc "A7"de|"F#7"f4 -|f4|
"Bm"ff f>e|dB B>c|dB B>c|dB B2|"D"Af2B|"A7"A2 e2|"D"d4 -|d4|]

